X:388
T: "Jaegerraenke"
N: Z1068
O: Europa, Mitteleuropa, Deutschland
R: Romanze, Ballade, Jaeger - Lied
M: 2/4
L: 1/16
K: Bb
F2 | B2dBc2dd | G2c2B2z
B | c2c2c2cc | d2c2B2
B2 | c2c2c2c2 | d2c2B2
F2 | G4A4 | B4z2

@@@ Tune index: 10146
